_includes/icons/color-skyscrapers.svg

<svg fill="#666" height="50" viewBox="0 0 48 48" width="50" xmlns="http://www.w3.org/2000/svg"><path d="m10 13 6-3v19.199219h-6z" fill="#4527a0"/><path d="m8 16 10-5v32h-10z" fill="#673ab7"/><path d="m13 43h5v-32l-5 2.5z" fill="#4527a0"/><path d="m15 16h-1v-1h1z" fill="#ba68c8"/><path d="m12 16h1v-1l-1 .5z" fill="#ce93d8"/><path d="m16 14h1v-1l-1 .5z" fill="#ba68c8"/><path d="m15 18h-1v-1h1z" fill="#ba68c8"/><path d="m13 18h-1v-1h1z" fill="#ce93d8"/><path d="m11 18h-1v-1h1z" fill="#ce93d8"/><path d="m15 20h-1v-1h1z" fill="#ba68c8"/><path d="m13 20h-1v-1h1z" fill="#ce93d8"/><path d="m11 20h-1v-1h1z" fill="#ce93d8"/><path d="m15 22h-1v-1h1z" fill="#ba68c8"/><path d="m13 22h-1v-1h1z" fill="#ce93d8"/><path d="m11 22h-1v-1h1z" fill="#ce93d8"/><path d="m15 24h-1v-1h1z" fill="#ba68c8"/><path d="m13 24h-1v-1h1z" fill="#ce93d8"/><path d="m11 24h-1v-1h1z" fill="#ce93d8"/><path d="m15 26h-1v-1h1z" fill="#ba68c8"/><path d="m13 26h-1v-1h1z" fill="#ce93d8"/><path d="m11 26h-1v-1h1z" fill="#ce93d8"/><path d="m15 28h-1v-1h1z" fill="#ba68c8"/><path d="m13 28h-1v-1h1z" fill="#ce93d8"/><path d="m11 28h-1v-1h1z" fill="#ce93d8"/><path d="m15 30h-1v-1h1z" fill="#ba68c8"/><path d="m13 30h-1v-1h1z" fill="#ce93d8"/><path d="m11 30h-1v-1h1z" fill="#ce93d8"/><path d="m15 32h-1v-1h1z" fill="#ba68c8"/><path d="m13 32h-1v-1h1z" fill="#ce93d8"/><path d="m11 32h-1v-1h1z" fill="#ce93d8"/><path d="m15 34h-1v-1h1z" fill="#ba68c8"/><path d="m13 34h-1v-1h1z" fill="#ce93d8"/><path d="m11 34h-1v-1h1z" fill="#ce93d8"/><path d="m15 36h-1v-1h1z" fill="#ba68c8"/><path d="m13 36h-1v-1h1z" fill="#ce93d8"/><path d="m11 36h-1v-1h1z" fill="#ce93d8"/><path d="m15 38h-1v-1h1z" fill="#ba68c8"/><path d="m13 38h-1v-1h1z" fill="#ce93d8"/><path d="m11 38h-1v-1h1z" fill="#ce93d8"/><path d="m15 40h-1v-1h1z" fill="#ba68c8"/><path d="m13 40h-1v-1h1z" fill="#ce93d8"/><path d="m11 40h-1v-1h1z" fill="#ce93d8"/><path d="m15 42h-1v-1h1z" fill="#ba68c8"/><path d="m17 16h-1v-1h1z" fill="#ba68c8"/><path d="m17 18h-1v-1h1z" fill="#ba68c8"/><path d="m17 20h-1v-1h1z" fill="#ba68c8"/><path d="m17 22h-1v-1h1z" fill="#ba68c8"/><path d="m17 24h-1v-1h1z" fill="#ba68c8"/><path d="m17 26h-1v-1h1z" fill="#ba68c8"/><path d="m17 28h-1v-1h1z" fill="#ba68c8"/><path d="m17 30h-1v-1h1z" fill="#ba68c8"/><path d="m17 32h-1v-1h1z" fill="#ba68c8"/><path d="m17 34h-1v-1h1z" fill="#ba68c8"/><path d="m17 36h-1v-1h1z" fill="#ba68c8"/><path d="m17 38h-1v-1h1z" fill="#ba68c8"/><path d="m17 40h-1v-1h1z" fill="#ba68c8"/><path d="m17 42h-1v-1h1z" fill="#ba68c8"/><path d="m13 42h-1v-1h1z" fill="#ce93d8"/><path d="m11 42h-1v-1h1z" fill="#ce93d8"/><path d="m29 15h11v28h-11z" fill="#3f51b5"/><path d="m29 15h4v28h-4z" fill="#1a237e"/><path d="m17 9h13v34h-13z" fill="#90caf9"/><path d="m19 5h9v4h-9z" fill="#bbdefb"/><path d="m21 10h1v1h-1z" fill="#1e88e5"/><path d="m23 10h1v1h-1z" fill="#1e88e5"/><path d="m25 10h1v1h-1z" fill="#1e88e5"/><path d="m23 6h1v2h-1z" fill="#1e88e5"/><path d="m21 6h1v2h-1z" fill="#1e88e5"/><path d="m25 6h1v2h-1z" fill="#1e88e5"/><path d="m27 10h1v1h-1z" fill="#1e88e5"/><g fill="#9fa8da"><path d="m33 17h1v1h-1z"/><path d="m35 17h1v1h-1z"/><path d="m37 17h1v1h-1z"/><path d="m33 19h1v1h-1z"/><path d="m35 19h1v1h-1z"/><path d="m37 19h1v1h-1z"/><path d="m33 21h1v1h-1z"/><path d="m35 21h1v1h-1z"/><path d="m37 21h1v1h-1z"/><path d="m33 23h1v1h-1z"/><path d="m35 23h1v1h-1z"/><path d="m37 23h1v1h-1z"/><path d="m33 25h1v1h-1z"/><path d="m35 25h1v1h-1z"/><path d="m37 25h1v1h-1z"/><path d="m33 27h1v1h-1z"/><path d="m35 27h1v1h-1z"/><path d="m37 27h1v1h-1z"/><path d="m33 29h1v1h-1z"/><path d="m35 29h1v1h-1z"/><path d="m37 29h1v1h-1z"/><path d="m33 31h1v1h-1z"/><path d="m35 31h1v1h-1z"/><path d="m37 31h1v1h-1z"/><path d="m33 33h1v1h-1z"/><path d="m35 33h1v1h-1z"/><path d="m37 33h1v1h-1z"/><path d="m33 35h1v1h-1z"/><path d="m35 35h1v1h-1z"/><path d="m37 35h1v1h-1z"/><path d="m33 37h1v1h-1z"/><path d="m35 37h1v1h-1z"/><path d="m37 37h1v1h-1z"/><path d="m33 39h1v1h-1z"/><path d="m35 39h1v1h-1z"/><path d="m37 39h1v1h-1z"/><path d="m33 41h1v1h-1z"/></g><path d="m31 17h1v1h-1z" fill="#7986cb"/><path d="m31 19h1v1h-1z" fill="#7986cb"/><path d="m31 21h1v1h-1z" fill="#7986cb"/><path d="m31 23h1v1h-1z" fill="#7986cb"/><path d="m31 25h1v1h-1z" fill="#7986cb"/><path d="m31 27h1v1h-1z" fill="#7986cb"/><path d="m31 29h1v1h-1z" fill="#7986cb"/><path d="m31 31h1v1h-1z" fill="#7986cb"/><path d="m31 33h1v1h-1z" fill="#7986cb"/><path d="m31 35h1v1h-1z" fill="#7986cb"/><path d="m31 37h1v1h-1z" fill="#7986cb"/><path d="m31 39h1v1h-1z" fill="#7986cb"/><path d="m31 41h1v1h-1z" fill="#7986cb"/><path d="m35 41h1v1h-1z" fill="#9fa8da"/><path d="m37 41h1v1h-1z" fill="#9fa8da"/><g fill="#1e88e5"><path d="m21 12h1v1h-1z"/><path d="m23 12h1v1h-1z"/><path d="m25 12h1v1h-1z"/><path d="m27 12h1v1h-1z"/><path d="m21 14h1v1h-1z"/><path d="m23 14h1v1h-1z"/><path d="m25 14h1v1h-1z"/><path d="m27 14h1v1h-1z"/><path d="m21 16h1v1h-1z"/><path d="m23 16h1v1h-1z"/><path d="m25 16h1v1h-1z"/><path d="m27 16h1v1h-1z"/><path d="m21 18h1v1h-1z"/><path d="m23 18h1v1h-1z"/><path d="m25 18h1v1h-1z"/><path d="m27 18h1v1h-1z"/><path d="m21 20h1v1h-1z"/><path d="m23 20h1v1h-1z"/><path d="m25 20h1v1h-1z"/><path d="m27 20h1v1h-1z"/><path d="m21 22h1v1h-1z"/><path d="m23 22h1v1h-1z"/><path d="m25 22h1v1h-1z"/><path d="m27 22h1v1h-1z"/><path d="m21 24h1v1h-1z"/><path d="m23 24h1v1h-1z"/><path d="m25 24h1v1h-1z"/><path d="m27 24h1v1h-1z"/><path d="m21 26h1v1h-1z"/><path d="m23 26h1v1h-1z"/><path d="m25 26h1v1h-1z"/><path d="m27 26h1v1h-1z"/><path d="m21 28h1v1h-1z"/><path d="m23 28h1v1h-1z"/><path d="m25 28h1v1h-1z"/><path d="m27 28h1v1h-1z"/><path d="m21 30h1v1h-1z"/><path d="m23 30h1v1h-1z"/><path d="m25 30h1v1h-1z"/><path d="m27 30h1v1h-1z"/><path d="m21 32h1v1h-1z"/><path d="m23 32h1v1h-1z"/><path d="m25 32h1v1h-1z"/><path d="m27 32h1v1h-1z"/><path d="m21 34h1v1h-1z"/><path d="m23 34h1v1h-1z"/><path d="m25 34h1v1h-1z"/><path d="m27 34h1v1h-1z"/><path d="m21 36h1v1h-1z"/><path d="m23 36h1v1h-1z"/><path d="m25 36h1v1h-1z"/><path d="m27 36h1v1h-1z"/><path d="m21 38h1v1h-1z"/><path d="m23 38h1v1h-1z"/><path d="m25 38h1v1h-1z"/><path d="m27 38h1v1h-1z"/><path d="m21 40h1v1h-1z"/><path d="m23 40h1v1h-1z"/><path d="m25 40h1v1h-1z"/><path d="m27 40h1v1h-1z"/><path d="m21 42h1v1h-1z"/><path d="m19 10h1v1h-1z"/><path d="m19 12h1v1h-1z"/><path d="m19 14h1v1h-1z"/><path d="m19 16h1v1h-1z"/><path d="m19 18h1v1h-1z"/><path d="m19 20h1v1h-1z"/><path d="m19 22h1v1h-1z"/><path d="m19 24h1v1h-1z"/><path d="m19 26h1v1h-1z"/><path d="m19 28h1v1h-1z"/><path d="m19 30h1v1h-1z"/><path d="m19 32h1v1h-1z"/><path d="m19 34h1v1h-1z"/><path d="m19 36h1v1h-1z"/><path d="m19 38h1v1h-1z"/><path d="m19 40h1v1h-1z"/><path d="m19 42h1v1h-1z"/><path d="m23 42h1v1h-1z"/><path d="m25 42h1v1h-1z"/><path d="m27 42h1v1h-1z"/></g><path d="m32 13h6v2h-6z" fill="#303f9f"/><path d="m31 13h2v2h-2z" fill="#1a237e"/></svg>

<svg xmlns="http://www.w3.org/2000/svg" viewBox="0 0 48 48" width="50" height="50" fill="#666"><path d="M 10 13 L 16 10 L 16 29.199219 L 10 29.199219 Z" fill="#4527a0"/><path d="M 8 16 L 18 11 L 18 43 L 8 43 Z" fill="#673ab7"/><path d="M 13 43 L 18 43 L 18 11 L 13 13.5 Z" fill="#4527a0"/><path d="M 15 16 L 14 16 L 14 15 L 15 15 Z" fill="#ba68c8"/><path d="M 12 16 L 13 16 L 13 15 L 12 15.5 Z" fill="#ce93d8"/><path d="M 16 14 L 17 14 L 17 13 L 16 13.5 Z" fill="#ba68c8"/><path d="M 15 18 L 14 18 L 14 17 L 15 17 Z" fill="#ba68c8"/><path d="M 13 18 L 12 18 L 12 17 L 13 17 Z" fill="#ce93d8"/><path d="M 11 18 L 10 18 L 10 17 L 11 17 Z" fill="#ce93d8"/><path d="M 15 20 L 14 20 L 14 19 L 15 19 Z" fill="#ba68c8"/><path d="M 13 20 L 12 20 L 12 19 L 13 19 Z" fill="#ce93d8"/><path d="M 11 20 L 10 20 L 10 19 L 11 19 Z" fill="#ce93d8"/><path d="M 15 22 L 14 22 L 14 21 L 15 21 Z" fill="#ba68c8"/><path d="M 13 22 L 12 22 L 12 21 L 13 21 Z" fill="#ce93d8"/><path d="M 11 22 L 10 22 L 10 21 L 11 21 Z" fill="#ce93d8"/><path d="M 15 24 L 14 24 L 14 23 L 15 23 Z" fill="#ba68c8"/><path d="M 13 24 L 12 24 L 12 23 L 13 23 Z" fill="#ce93d8"/><path d="M 11 24 L 10 24 L 10 23 L 11 23 Z" fill="#ce93d8"/><path d="M 15 26 L 14 26 L 14 25 L 15 25 Z" fill="#ba68c8"/><path d="M 13 26 L 12 26 L 12 25 L 13 25 Z" fill="#ce93d8"/><path d="M 11 26 L 10 26 L 10 25 L 11 25 Z" fill="#ce93d8"/><path d="M 15 28 L 14 28 L 14 27 L 15 27 Z" fill="#ba68c8"/><path d="M 13 28 L 12 28 L 12 27 L 13 27 Z" fill="#ce93d8"/><path d="M 11 28 L 10 28 L 10 27 L 11 27 Z" fill="#ce93d8"/><path d="M 15 30 L 14 30 L 14 29 L 15 29 Z" fill="#ba68c8"/><path d="M 13 30 L 12 30 L 12 29 L 13 29 Z" fill="#ce93d8"/><path d="M 11 30 L 10 30 L 10 29 L 11 29 Z" fill="#ce93d8"/><path d="M 15 32 L 14 32 L 14 31 L 15 31 Z" fill="#ba68c8"/><path d="M 13 32 L 12 32 L 12 31 L 13 31 Z" fill="#ce93d8"/><path d="M 11 32 L 10 32 L 10 31 L 11 31 Z" fill="#ce93d8"/><path d="M 15 34 L 14 34 L 14 33 L 15 33 Z" fill="#ba68c8"/><path d="M 13 34 L 12 34 L 12 33 L 13 33 Z" fill="#ce93d8"/><path d="M 11 34 L 10 34 L 10 33 L 11 33 Z" fill="#ce93d8"/><path d="M 15 36 L 14 36 L 14 35 L 15 35 Z" fill="#ba68c8"/><path d="M 13 36 L 12 36 L 12 35 L 13 35 Z" fill="#ce93d8"/><path d="M 11 36 L 10 36 L 10 35 L 11 35 Z" fill="#ce93d8"/><path d="M 15 38 L 14 38 L 14 37 L 15 37 Z" fill="#ba68c8"/><path d="M 13 38 L 12 38 L 12 37 L 13 37 Z" fill="#ce93d8"/><path d="M 11 38 L 10 38 L 10 37 L 11 37 Z" fill="#ce93d8"/><path d="M 15 40 L 14 40 L 14 39 L 15 39 Z" fill="#ba68c8"/><path d="M 13 40 L 12 40 L 12 39 L 13 39 Z" fill="#ce93d8"/><path d="M 11 40 L 10 40 L 10 39 L 11 39 Z" fill="#ce93d8"/><path d="M 15 42 L 14 42 L 14 41 L 15 41 Z" fill="#ba68c8"/><path d="M 17 16 L 16 16 L 16 15 L 17 15 Z" fill="#ba68c8"/><path d="M 17 18 L 16 18 L 16 17 L 17 17 Z" fill="#ba68c8"/><path d="M 17 20 L 16 20 L 16 19 L 17 19 Z" fill="#ba68c8"/><path d="M 17 22 L 16 22 L 16 21 L 17 21 Z" fill="#ba68c8"/><path d="M 17 24 L 16 24 L 16 23 L 17 23 Z" fill="#ba68c8"/><path d="M 17 26 L 16 26 L 16 25 L 17 25 Z" fill="#ba68c8"/><path d="M 17 28 L 16 28 L 16 27 L 17 27 Z" fill="#ba68c8"/><path d="M 17 30 L 16 30 L 16 29 L 17 29 Z" fill="#ba68c8"/><path d="M 17 32 L 16 32 L 16 31 L 17 31 Z" fill="#ba68c8"/><path d="M 17 34 L 16 34 L 16 33 L 17 33 Z" fill="#ba68c8"/><path d="M 17 36 L 16 36 L 16 35 L 17 35 Z" fill="#ba68c8"/><path d="M 17 38 L 16 38 L 16 37 L 17 37 Z" fill="#ba68c8"/><path d="M 17 40 L 16 40 L 16 39 L 17 39 Z" fill="#ba68c8"/><path d="M 17 42 L 16 42 L 16 41 L 17 41 Z" fill="#ba68c8"/><path d="M 13 42 L 12 42 L 12 41 L 13 41 Z" fill="#ce93d8"/><path d="M 11 42 L 10 42 L 10 41 L 11 41 Z" fill="#ce93d8"/><path d="M 29 15 L 40 15 L 40 43 L 29 43 Z" fill="#3f51b5"/><path d="M 29 15 L 33 15 L 33 43 L 29 43 Z" fill="#1a237e"/><path d="M 17 9 L 30 9 L 30 43 L 17 43 Z" fill="#90caf9"/><path d="M 19 5 L 28 5 L 28 9 L 19 9 Z" fill="#bbdefb"/><path d="M 21 10 L 22 10 L 22 11 L 21 11 Z" fill="#1e88e5"/><path d="M 23 10 L 24 10 L 24 11 L 23 11 Z" fill="#1e88e5"/><path d="M 25 10 L 26 10 L 26 11 L 25 11 Z" fill="#1e88e5"/><path d="M 23 6 L 24 6 L 24 8 L 23 8 Z" fill="#1e88e5"/><path d="M 21 6 L 22 6 L 22 8 L 21 8 Z" fill="#1e88e5"/><path d="M 25 6 L 26 6 L 26 8 L 25 8 Z" fill="#1e88e5"/><path d="M 27 10 L 28 10 L 28 11 L 27 11 Z" fill="#1e88e5"/><path d="M 33 17 L 34 17 L 34 18 L 33 18 Z" fill="#9fa8da"/><path d="M 35 17 L 36 17 L 36 18 L 35 18 Z" fill="#9fa8da"/><path d="M 37 17 L 38 17 L 38 18 L 37 18 Z" fill="#9fa8da"/><path d="M 33 19 L 34 19 L 34 20 L 33 20 Z" fill="#9fa8da"/><path d="M 35 19 L 36 19 L 36 20 L 35 20 Z" fill="#9fa8da"/><path d="M 37 19 L 38 19 L 38 20 L 37 20 Z" fill="#9fa8da"/><path d="M 33 21 L 34 21 L 34 22 L 33 22 Z" fill="#9fa8da"/><path d="M 35 21 L 36 21 L 36 22 L 35 22 Z" fill="#9fa8da"/><path d="M 37 21 L 38 21 L 38 22 L 37 22 Z" fill="#9fa8da"/><path d="M 33 23 L 34 23 L 34 24 L 33 24 Z" fill="#9fa8da"/><path d="M 35 23 L 36 23 L 36 24 L 35 24 Z" fill="#9fa8da"/><path d="M 37 23 L 38 23 L 38 24 L 37 24 Z" fill="#9fa8da"/><path d="M 33 25 L 34 25 L 34 26 L 33 26 Z" fill="#9fa8da"/><path d="M 35 25 L 36 25 L 36 26 L 35 26 Z" fill="#9fa8da"/><path d="M 37 25 L 38 25 L 38 26 L 37 26 Z" fill="#9fa8da"/><path d="M 33 27 L 34 27 L 34 28 L 33 28 Z" fill="#9fa8da"/><path d="M 35 27 L 36 27 L 36 28 L 35 28 Z" fill="#9fa8da"/><path d="M 37 27 L 38 27 L 38 28 L 37 28 Z" fill="#9fa8da"/><path d="M 33 29 L 34 29 L 34 30 L 33 30 Z" fill="#9fa8da"/><path d="M 35 29 L 36 29 L 36 30 L 35 30 Z" fill="#9fa8da"/><path d="M 37 29 L 38 29 L 38 30 L 37 30 Z" fill="#9fa8da"/><path d="M 33 31 L 34 31 L 34 32 L 33 32 Z" fill="#9fa8da"/><path d="M 35 31 L 36 31 L 36 32 L 35 32 Z" fill="#9fa8da"/><path d="M 37 31 L 38 31 L 38 32 L 37 32 Z" fill="#9fa8da"/><path d="M 33 33 L 34 33 L 34 34 L 33 34 Z" fill="#9fa8da"/><path d="M 35 33 L 36 33 L 36 34 L 35 34 Z" fill="#9fa8da"/><path d="M 37 33 L 38 33 L 38 34 L 37 34 Z" fill="#9fa8da"/><path d="M 33 35 L 34 35 L 34 36 L 33 36 Z" fill="#9fa8da"/><path d="M 35 35 L 36 35 L 36 36 L 35 36 Z" fill="#9fa8da"/><path d="M 37 35 L 38 35 L 38 36 L 37 36 Z" fill="#9fa8da"/><path d="M 33 37 L 34 37 L 34 38 L 33 38 Z" fill="#9fa8da"/><path d="M 35 37 L 36 37 L 36 38 L 35 38 Z" fill="#9fa8da"/><path d="M 37 37 L 38 37 L 38 38 L 37 38 Z" fill="#9fa8da"/><path d="M 33 39 L 34 39 L 34 40 L 33 40 Z" fill="#9fa8da"/><path d="M 35 39 L 36 39 L 36 40 L 35 40 Z" fill="#9fa8da"/><path d="M 37 39 L 38 39 L 38 40 L 37 40 Z" fill="#9fa8da"/><path d="M 33 41 L 34 41 L 34 42 L 33 42 Z" fill="#9fa8da"/><path d="M 31 17 L 32 17 L 32 18 L 31 18 Z" fill="#7986cb"/><path d="M 31 19 L 32 19 L 32 20 L 31 20 Z" fill="#7986cb"/><path d="M 31 21 L 32 21 L 32 22 L 31 22 Z" fill="#7986cb"/><path d="M 31 23 L 32 23 L 32 24 L 31 24 Z" fill="#7986cb"/><path d="M 31 25 L 32 25 L 32 26 L 31 26 Z" fill="#7986cb"/><path d="M 31 27 L 32 27 L 32 28 L 31 28 Z" fill="#7986cb"/><path d="M 31 29 L 32 29 L 32 30 L 31 30 Z" fill="#7986cb"/><path d="M 31 31 L 32 31 L 32 32 L 31 32 Z" fill="#7986cb"/><path d="M 31 33 L 32 33 L 32 34 L 31 34 Z" fill="#7986cb"/><path d="M 31 35 L 32 35 L 32 36 L 31 36 Z" fill="#7986cb"/><path d="M 31 37 L 32 37 L 32 38 L 31 38 Z" fill="#7986cb"/><path d="M 31 39 L 32 39 L 32 40 L 31 40 Z" fill="#7986cb"/><path d="M 31 41 L 32 41 L 32 42 L 31 42 Z" fill="#7986cb"/><path d="M 35 41 L 36 41 L 36 42 L 35 42 Z" fill="#9fa8da"/><path d="M 37 41 L 38 41 L 38 42 L 37 42 Z" fill="#9fa8da"/><path d="M 21 12 L 22 12 L 22 13 L 21 13 Z" fill="#1e88e5"/><path d="M 23 12 L 24 12 L 24 13 L 23 13 Z" fill="#1e88e5"/><path d="M 25 12 L 26 12 L 26 13 L 25 13 Z" fill="#1e88e5"/><path d="M 27 12 L 28 12 L 28 13 L 27 13 Z" fill="#1e88e5"/><path d="M 21 14 L 22 14 L 22 15 L 21 15 Z" fill="#1e88e5"/><path d="M 23 14 L 24 14 L 24 15 L 23 15 Z" fill="#1e88e5"/><path d="M 25 14 L 26 14 L 26 15 L 25 15 Z" fill="#1e88e5"/><path d="M 27 14 L 28 14 L 28 15 L 27 15 Z" fill="#1e88e5"/><path d="M 21 16 L 22 16 L 22 17 L 21 17 Z" fill="#1e88e5"/><path d="M 23 16 L 24 16 L 24 17 L 23 17 Z" fill="#1e88e5"/><path d="M 25 16 L 26 16 L 26 17 L 25 17 Z" fill="#1e88e5"/><path d="M 27 16 L 28 16 L 28 17 L 27 17 Z" fill="#1e88e5"/><path d="M 21 18 L 22 18 L 22 19 L 21 19 Z" fill="#1e88e5"/><path d="M 23 18 L 24 18 L 24 19 L 23 19 Z" fill="#1e88e5"/><path d="M 25 18 L 26 18 L 26 19 L 25 19 Z" fill="#1e88e5"/><path d="M 27 18 L 28 18 L 28 19 L 27 19 Z" fill="#1e88e5"/><path d="M 21 20 L 22 20 L 22 21 L 21 21 Z" fill="#1e88e5"/><path d="M 23 20 L 24 20 L 24 21 L 23 21 Z" fill="#1e88e5"/><path d="M 25 20 L 26 20 L 26 21 L 25 21 Z" fill="#1e88e5"/><path d="M 27 20 L 28 20 L 28 21 L 27 21 Z" fill="#1e88e5"/><path d="M 21 22 L 22 22 L 22 23 L 21 23 Z" fill="#1e88e5"/><path d="M 23 22 L 24 22 L 24 23 L 23 23 Z" fill="#1e88e5"/><path d="M 25 22 L 26 22 L 26 23 L 25 23 Z" fill="#1e88e5"/><path d="M 27 22 L 28 22 L 28 23 L 27 23 Z" fill="#1e88e5"/><path d="M 21 24 L 22 24 L 22 25 L 21 25 Z" fill="#1e88e5"/><path d="M 23 24 L 24 24 L 24 25 L 23 25 Z" fill="#1e88e5"/><path d="M 25 24 L 26 24 L 26 25 L 25 25 Z" fill="#1e88e5"/><path d="M 27 24 L 28 24 L 28 25 L 27 25 Z" fill="#1e88e5"/><path d="M 21 26 L 22 26 L 22 27 L 21 27 Z" fill="#1e88e5"/><path d="M 23 26 L 24 26 L 24 27 L 23 27 Z" fill="#1e88e5"/><path d="M 25 26 L 26 26 L 26 27 L 25 27 Z" fill="#1e88e5"/><path d="M 27 26 L 28 26 L 28 27 L 27 27 Z" fill="#1e88e5"/><path d="M 21 28 L 22 28 L 22 29 L 21 29 Z" fill="#1e88e5"/><path d="M 23 28 L 24 28 L 24 29 L 23 29 Z" fill="#1e88e5"/><path d="M 25 28 L 26 28 L 26 29 L 25 29 Z" fill="#1e88e5"/><path d="M 27 28 L 28 28 L 28 29 L 27 29 Z" fill="#1e88e5"/><path d="M 21 30 L 22 30 L 22 31 L 21 31 Z" fill="#1e88e5"/><path d="M 23 30 L 24 30 L 24 31 L 23 31 Z" fill="#1e88e5"/><path d="M 25 30 L 26 30 L 26 31 L 25 31 Z" fill="#1e88e5"/><path d="M 27 30 L 28 30 L 28 31 L 27 31 Z" fill="#1e88e5"/><path d="M 21 32 L 22 32 L 22 33 L 21 33 Z" fill="#1e88e5"/><path d="M 23 32 L 24 32 L 24 33 L 23 33 Z" fill="#1e88e5"/><path d="M 25 32 L 26 32 L 26 33 L 25 33 Z" fill="#1e88e5"/><path d="M 27 32 L 28 32 L 28 33 L 27 33 Z" fill="#1e88e5"/><path d="M 21 34 L 22 34 L 22 35 L 21 35 Z" fill="#1e88e5"/><path d="M 23 34 L 24 34 L 24 35 L 23 35 Z" fill="#1e88e5"/><path d="M 25 34 L 26 34 L 26 35 L 25 35 Z" fill="#1e88e5"/><path d="M 27 34 L 28 34 L 28 35 L 27 35 Z" fill="#1e88e5"/><path d="M 21 36 L 22 36 L 22 37 L 21 37 Z" fill="#1e88e5"/><path d="M 23 36 L 24 36 L 24 37 L 23 37 Z" fill="#1e88e5"/><path d="M 25 36 L 26 36 L 26 37 L 25 37 Z" fill="#1e88e5"/><path d="M 27 36 L 28 36 L 28 37 L 27 37 Z" fill="#1e88e5"/><path d="M 21 38 L 22 38 L 22 39 L 21 39 Z" fill="#1e88e5"/><path d="M 23 38 L 24 38 L 24 39 L 23 39 Z" fill="#1e88e5"/><path d="M 25 38 L 26 38 L 26 39 L 25 39 Z" fill="#1e88e5"/><path d="M 27 38 L 28 38 L 28 39 L 27 39 Z" fill="#1e88e5"/><path d="M 21 40 L 22 40 L 22 41 L 21 41 Z" fill="#1e88e5"/><path d="M 23 40 L 24 40 L 24 41 L 23 41 Z" fill="#1e88e5"/><path d="M 25 40 L 26 40 L 26 41 L 25 41 Z" fill="#1e88e5"/><path d="M 27 40 L 28 40 L 28 41 L 27 41 Z" fill="#1e88e5"/><path d="M 21 42 L 22 42 L 22 43 L 21 43 Z" fill="#1e88e5"/><path d="M 19 10 L 20 10 L 20 11 L 19 11 Z" fill="#1e88e5"/><path d="M 19 12 L 20 12 L 20 13 L 19 13 Z" fill="#1e88e5"/><path d="M 19 14 L 20 14 L 20 15 L 19 15 Z" fill="#1e88e5"/><path d="M 19 16 L 20 16 L 20 17 L 19 17 Z" fill="#1e88e5"/><path d="M 19 18 L 20 18 L 20 19 L 19 19 Z" fill="#1e88e5"/><path d="M 19 20 L 20 20 L 20 21 L 19 21 Z" fill="#1e88e5"/><path d="M 19 22 L 20 22 L 20 23 L 19 23 Z" fill="#1e88e5"/><path d="M 19 24 L 20 24 L 20 25 L 19 25 Z" fill="#1e88e5"/><path d="M 19 26 L 20 26 L 20 27 L 19 27 Z" fill="#1e88e5"/><path d="M 19 28 L 20 28 L 20 29 L 19 29 Z" fill="#1e88e5"/><path d="M 19 30 L 20 30 L 20 31 L 19 31 Z" fill="#1e88e5"/><path d="M 19 32 L 20 32 L 20 33 L 19 33 Z" fill="#1e88e5"/><path d="M 19 34 L 20 34 L 20 35 L 19 35 Z" fill="#1e88e5"/><path d="M 19 36 L 20 36 L 20 37 L 19 37 Z" fill="#1e88e5"/><path d="M 19 38 L 20 38 L 20 39 L 19 39 Z" fill="#1e88e5"/><path d="M 19 40 L 20 40 L 20 41 L 19 41 Z" fill="#1e88e5"/><path d="M 19 42 L 20 42 L 20 43 L 19 43 Z" fill="#1e88e5"/><path d="M 23 42 L 24 42 L 24 43 L 23 43 Z" fill="#1e88e5"/><path d="M 25 42 L 26 42 L 26 43 L 25 43 Z" fill="#1e88e5"/><path d="M 27 42 L 28 42 L 28 43 L 27 43 Z" fill="#1e88e5"/><path d="M 32 13 L 38 13 L 38 15 L 32 15 Z" fill="#303f9f"/><path d="M 31 13 L 33 13 L 33 15 L 31 15 Z" fill="#1a237e"/></svg>
